src/pos-icons/close-box.svg

<svg height="24" viewBox="0 0 24 24" width="24" xmlns="http://www.w3.org/2000/svg"><path d="m19 3h-2.7-8.6-2.7a2 2 0 0 0 -2 2v2.7 8.7 2.6a2 2 0 0 0 2 2h2.7 8.7 2.6a2 2 0 0 0 2-2v-2.7-8.6-2.7a2 2 0 0 0 -2-2m-3.4 14-3.6-3.6-3.6 3.6-1.4-1.4 3.6-3.6-3.6-3.6 1.4-1.4 3.6 3.6 3.6-3.6 1.4 1.4-3.6 3.6 3.6 3.6z"/></svg>

<?xml version="1.0" encoding="UTF-8"?><!DOCTYPE svg PUBLIC "-//W3C//DTD SVG 1.1//EN" "http://www.w3.org/Graphics/SVG/1.1/DTD/svg11.dtd"><svg xmlns="http://www.w3.org/2000/svg" xmlns:xlink="http://www.w3.org/1999/xlink" version="1.1" id="mdi-close-box" width="24" height="24" viewBox="0 0 24 24"><path d="M19,3H16.3H7.7H5A2,2 0 0,0 3,5V7.7V16.4V19A2,2 0 0,0 5,21H7.7H16.4H19A2,2 0 0,0 21,19V16.3V7.7V5A2,2 0 0,0 19,3M15.6,17L12,13.4L8.4,17L7,15.6L10.6,12L7,8.4L8.4,7L12,10.6L15.6,7L17,8.4L13.4,12L17,15.6L15.6,17Z" /></svg>
